app/img/orange-arrow.svg

<svg width="32" height="32" viewBox="0 0 32 32" fill="none" xmlns="http://www.w3.org/2000/svg">
<path d="M20.5333 15.9932C20.5333 16.2866 20.4267 16.5532 20.2133 16.7666L13.28 23.4332C12.8533 23.8332 12.1867 23.8332 11.76 23.4066C11.36 22.9799 11.36 22.3132 11.7867 21.8866L17.92 15.9932L11.7867 10.0999C11.36 9.69987 11.36 9.00655 11.76 8.57989C12.16 8.15322 12.8533 8.15326 13.28 8.55326L20.2133 15.2199C20.4267 15.4332 20.5333 15.6999 20.5333 15.9932Z" fill="#FF5722"/>
</svg>

<svg width="32" height="32" fill="none" xmlns="http://www.w3.org/2000/svg"><path d="M20.533 15.993c0 .294-.106.56-.32.774l-6.933 6.666c-.427.4-1.093.4-1.52-.026-.4-.427-.4-1.094.027-1.52l6.133-5.894-6.133-5.893c-.427-.4-.427-1.093-.027-1.52.4-.427 1.093-.427 1.52-.027l6.933 6.667c.214.213.32.48.32.773z" fill="#FF5722"/></svg>
